X:1743
T:Wandering Willy
M:2/4
L:1/16
N:"collected by J. O'Neill"
B:O'Neill's 1743
R:Hornpipe
Z:"Transcribed by Bob Safranek, rjs@gsp.org"
K:G
   (dc) | BGDG  B2cB  | A^GAB c2(BA) | Bgdg BgdB | c2A2 A2(dc) |
          BGDG B2(cB) | A^GAB  c2d2  | egdg BgAc | B2G2 G2    :|
|: (Bc) | dgfg  edBd  | ea^ga e2(ga) | bagf gedB | c2A2 A2(Bc) |
          dgfg  edBd  | ea^ga  e2d2  | egdg BgAc | B2G2 G2    :|


